X:1
T:Languente mio Giesu
T:Tomaso Cecchino
T:Source : Canti Spirituali a uno, due et tre voci + BC ---Venetia---G.Vincenti---1613. Editor : André Vierendeels (07/11/16).
T:Notes : Original clefs : C1, F4 Editorial accidentals above the staff "A due voci" 
T:Languente mio Giesu
T:©
T:©
T:©
T:©
T:©
C:Tomaso Cecchino
Z:©
%%score 1 2
L:1/8
Q:1/4=120
M:4/4
K:F
V:1 treble nm="Soprano" snm="S"
V:2 bass nm="MusicXML Part"
V:1
 z8 | z8 | d4 d4- | d4 ^c4 | d4 B4 | A8 | z2 B2 B2 c2 | d4 A4 | dd d4 cB | A4 A4 | z2 F4 G2 | %11
w: ||Lan- guen-|* te|mio Gie-|su|nel suo so-|spi- ro|con- so- la- to re-|spi- ro,|con- so-|
 A2 GF E4 | D2 dd d2 cB | A>F G/E/F/D/ E4 | D8 | z8 | z4 A2 =B2 | c4 =B2 A2 | G3 G A4 | z4 G2 A2 | %20
w: la- to re- spi-|ro, con- so- la- to re-|spi- * * * * * *|ro,||nell' a-|ma- re tue|la- gri- me,|nell' a-|
 B4 A2 G2 | F3 F G4 | z8 | B2 d2 c4- | c4 =B4 | z2 d2 A2 B2 | AGFG AB c2- | c2 B2 A4 | G2 d2 A3 B | %29
w: ma- re tue|la- gri- me||e nel pian-|* to,|m'è dol- ce'il|ri- * * * * * so|_ e'l can-|to, m'è dol- ce'il|
 c2 d2 cBAB | c2 GF EF G2- | G2 F2 E4 | D8 | z8 | z2 d2 d2 A2 | B3 c d4 | G2 d4 A2 | B2 A2 G4 | %38
w: ri- so'il ri- * * *||* so'e'l can-|to,||in quel- le|pia- * *|ghe de si|gran tor- men-|
 ^F2 AA B4 | A2 AA d4- | d2 ^FG A4 | G4 d4 | A3 A B4 | A2 B4 c2 | d2 G2 B4 | A4 z2 d2- | %46
w: to, ri- sa- na-|to, ri- sa- na-|* to mi sen-|to, in|fin nel- la|tua mor- te'a-|cer- ba'e ri-|a, a-|
 d2 c4 =B2 | A4 G2 G2 | B4 A4 | c4 =B4 | z8 | z8 | c2 cc A2 c2 | =B4 c4 |"^b" z2 B2 A2 G2 | %55
w: * cer- ba'e|ri- a, a-|cer- ba'e|ri- a,|||tro- vo la vi- ta|mi- a,|la vi- ta|
 ^F4 F2 d2 | B2 c2 d2 cB | A2 G4 ^F2 | G8 |] %59
w: mi- a, tro-|vo la vi- * *|ta mi- *|a.|
V:2
"^BC""^Bass" D,4 D,4- | D,4 ^C,4 | D,4 B,,4 | A,,8 | D,4 G,4- | G,4 ^F,4 |"^B" G,4 _E,4 | D,8 | %8
w: Lan- guen-|* te|mio Gie-|su,|lan- guen-|* te|mio Gie-|su,|
 z2 B,,2 B,,2 C,2 | D,4 A,,2 D,D, | D,6 C,B,, |"^B" A,,4 A,,4 | z2 B,,4 C,2 | D,2 C,B,, A,,4 | %14
w: nel tuo so-|spi- ro, con- so-|la to re-|spi- ro,|con- so-|la- to re- spi-|
 D,,8 | z4 D,2 E,2 | F,6 E,D, | C,3 C, D,4 | z4 A,,2 =B,,2 | C,4 =B,,2 A,,2 | G,,3 G,, A,,4 | %21
w: ro,|nell' a-|ma- re tue|la- gri- me,|nell' a-|ma- re tue|la- gri- me,|
 B,,2 D,2 C,4- |"^B" C,4 B,,4 | G,,4 A,,4 | G,,8 | z2 G,2 ^F,2 G,2 | F,E,D,E, F,2 C,2 |"^B" D,8 | %28
w: e nel spin-|* to,|nel pian-|to,|m'è dol- ce'il|ri- * * * * so'e'l|can-|
 G,,4 z2 D,2 | A,,2 B,,2 A,,G,,F,,G,, | A,,B,, C,4 B,,2 | A,,8 |"^B" D,,8 | z2 D,2 D,2 A,,2 | %34
w: to, m'è|dol- ce'il ri- * * *|* * * so'e'l|can-|to,|in quel- le|
 B,,3 C, D,4 | G,,2 G,4 D,2 | _E,2 D,2 F,4 |"^B" B,,2 D,D, _E,4 | D,4 z2 G,,G,, | D,6 =B,,C, | %40
w: pia- * *|ghe de si|gran tor- men-|to, ri- sa- na-|to, ri- s-|na- to mi|
 D,8 | G,,8 |"^B" z4 G,4 | D,3 D, _E,4 | D,2 _E,4 D,2- | D,2 C,4 =B,,2 | A,,4 G,,4 | %47
w: sen-|to,|in|fin nel- la|tua mor- te'a-|* cer- ba'e|ri- a,|
 D,4 =B,,2 C,2 |"^B" D,8 | A,,4 G,,4 | C,2 C,C, A,,2 C,2 | =B,,4 C,4 | F,2 F,F, F,2 E,2 | %53
w: a- cer- 'e|ri-|* a,|tro- vo la vi- ta|mi- a,|tro- vo- la vi- ta|
"^B" G,4 C,2 F,2 | B,,4 C,4 | D,4 D,4 | z2 A,,2 B,,2 C,2 | D,2 _E,2 D,4 | G,,8 |] %59
w: mi- a, la|vi- ta|mi- a,|tro- vo la|vi- ta mi-|a.|

